X:1822
T:Jonas kärleksvals
C:Robert Boström
R:Vals
Z:Robert Boström
M:3/4
L:1/8
K:G
Q:1/4=180
|:"G"d2 B2 G2|"C"F4 E2 |"D"D6|"G"B,6|"Am"A,2B,2C2|"C"E2F2G2|
"D"A6-|A6|"G"d2 B2 G2|"C"F4 E2 |"D"D6|"Em"B,6|
"C"C2E2G2|"D"F4G2|1"C/G"G6-|"G"G6:|2"C/G"G6-|"G"G4G2||
|:"D"A4A2|F2E2D2|"G"G4B2|d6|"C"e4e2|"Am"c4B2|
"D"A6-|A6|d4d2|f2g2a2|"G"b2g2f2|"C"e2f2g2|
"G"B2d2G2|"D"F4G2|1"C/G"G6-|"G"G4G2:|2"C"G2E2C2|"G/B"B,2D2G2|
"Am"A,2C2G2|"D"F4G2|"C/G"G6-|G6-|"G"G6-|G6||
(:musicend:)
[[http://www.jollybob.se/Lat.aspx?id=200|Inspelning och text finns här]]
(:music:)
M:3/4
L:1/8
K:C
